images/icons/youtube3.svg

<?xml version="1.0" encoding="UTF-8"?>
<svg xmlns="http://www.w3.org/2000/svg" xmlns:xlink="http://www.w3.org/1999/xlink" width="65px" height="40px" viewBox="0 0 65 40" version="1.1">
<!-- <g id="surface1"> -->
<path style="width:100%;  height:100%"
        d="M 31.039062 14.359375 C 30.851562 12.699219 30.453125 12.21875 30.175781 11.992188 C 29.730469 11.640625 28.921875 11.515625 27.84375 11.441406 C 26.113281 11.324219 23.171875 11.25 20 11.25 C 16.820312 11.25 13.886719 11.316406 12.15625 11.441406 C 11.078125 11.515625 10.269531 11.640625 9.824219 11.992188 C 9.546875 12.21875 9.15625 12.699219 8.960938 14.359375 C 8.679688 16.75 8.679688 22.203125 8.960938 24.597656 C 9.15625 26.253906 9.546875 26.738281 9.824219 26.964844 C 10.269531 27.3125 11.078125 27.4375 12.15625 27.511719 C 13.886719 27.628906 16.820312 27.707031 20 27.707031 C 23.179688 27.707031 26.113281 27.628906 27.84375 27.511719 C 28.921875 27.4375 29.730469 27.3125 30.175781 26.964844 C 30.453125 26.746094 30.84375 26.253906 31.039062 24.597656 C 31.320312 22.203125 31.320312 16.75 31.039062 14.359375 Z M 17.28125 23.054688 L 17.28125 15.894531 L 24.070312 19.46875 Z M 17.28125 23.054688 " />
    <!-- </g> -->
</svg>
<!-- style=" stroke:none;fill-rule:nonzero;fill:rgb(100%,100%,100%);fill-opacity:1;"  -->

<svg xmlns="http://www.w3.org/2000/svg" width="65" height="40"><path style="width:100%;height:100%" d="M31.04 14.36c-.188-1.66-.587-2.141-.864-2.368-.446-.351-1.254-.476-2.332-.55-1.73-.118-4.672-.192-7.844-.192-3.18 0-6.113.066-7.844.191-1.078.075-1.886.2-2.332.551-.277.227-.668.707-.863 2.367-.281 2.391-.281 7.844 0 10.239.195 1.656.586 2.14.863 2.367.446.348 1.254.473 2.332.547 1.73.117 4.664.195 7.844.195 3.18 0 6.113-.078 7.844-.195 1.078-.075 1.886-.2 2.332-.547.277-.219.668-.711.863-2.367.281-2.395.281-7.848 0-10.239zm-13.76 8.694v-7.16l6.79 3.574zm0 0"/></svg>
